X:237
T:Jolly Tinker, The
R:reel
H:See also #800
D:Martin O'Connor: The Connaughtman's Rambles
Z:id:hn-reel-237
M:C|
K:Ador
~A3B ~G3B|A2af gedB|~A3B ~G3B|1 dBGB dedB:|2 dBGB d2 (3Bcd||
edef g2fg|edef gedg|edeg ~a3b|a2bg aged|
edef ~g3a|bgaf gedg|edeg ~a3b|c'abg aged||
eaag ed (3Bcd|eaag egdg|eaag efge|dBGB d2 (3Bcd|
eaag eaag|eaag egdg|eaag efge|dBGB d2 (3Bcd||
edgd ed (3Bcd|edgd egdg|edgd efge|dBGB d2 (3Bcd|
edgd edgd|edgd egdg|edgd efge|dBGB dgfg||
eA~A2 ed (3Bcd|edef g2fg|1 eA~A2 efge|dBGB dgfg:|2 eaag efge|dBGB dedB||
P:Variations:
|:~A3B ~G3B|A2ef gedB|AGAB GABG|1 dG~G2 dedB:|2 dBGB d2 (3Bcd||
edef g2gf|gbaf gedg|ed (3efg a2eg|a2ag aged|
edef ~g3a|bgaf gedg|edeg ~a3b|c'2c'b aged||
eaag ed (3Bcd|eaag egdg|eaag efge|dBGB d2 (3Bcd|
ea~a2 ea~a2|eaag egdg|edef gage|dBGB d2 (3Bcd||
edgd ed (3Bcd|edgd (3efg dg|e2ed efge|dBGB d2 (3Bcd|
edgd ed (3Bcd|edgd edBd|eGBd efge|dBGB d2 (3Bcd||
eA~A2 ed (3Bcd|edef g2fg|1 eA~A2 edge|dBGB d2 (3Bcd:|2 eaag efge|dBGB dedB||

